X: 7474
T:Mrs MacDonald of Uig
R:Pipe march
O:Scotland
M:6/8
K:Amix
e|\
A2A A>BG|A>Bd e>dg|e>dB A2A|G>Be d>BG|\
A2A A>BG|A>Bd e>dg|e>dB B>gB|A>BG A2::\
e|\
A>aa g<ea|A>aa e>dg|e>dB A2A|G>Be d>BG\
|1  A>aa g<ea|A>aa e>dg|e2d e<gB|A>BG A3\
:|2 e3 A2A|B>ee d>ef|g>fe d<gB|A>BG A2||
|:g/<f/|\
e2d e2A|g>ed e2A|g2f e2d|B2e d>BG|\
e2d e2A|g>ed e>fg|a>ge d<gB|A>BG A2::
e|\
a>ee a2a|e>fg a>ge|g>ed g2g|d>ef g>ed\
|1  a>ee a2a|g>fe d>ef|g>fe d<gB|A>BG A2\
:|2 e>fg f>ga|g>fe d>ef|g>fe d<gB|A>BG A2|]
